sitelenpona/static/unu-1.svg

<svg xmlns="http://www.w3.org/2000/svg" xmlns:xlink="http://www.w3.org/1999/xlink" version="1.1" viewBox="43 -19 528 875">
   <path fill="currentColor" d="M159 242q13 0 18 4t14 4q19 0 37 -9.5t21 -9.5q6 0 15 -9q8 -10 5 -34q-2 -18 -7.5 -26t-31.5 -31q-46 -41 -46 -55q0 -13 18 -24t31 -11q5 0 9 4q3 3 6 -2t23.5 -13.5t30.5 -8.5q4 0 9 2.5t12 3.5q33 3 54.5 9t27.5 10.5t10 8t6 3.5q12 0 31.5 29t30.5 62q3 8 3 41 q0 78 -22 102q-10 11 -10 15q0 7 -19 32q-17 22 -37 37t-38 24t-21 11l-14 11l9 18q26 50 36 61q6 6 9 15.5t6 14.5t9 5q5 0 6 1.5t0 4t1 8t8 12.5q12 12 12 17q37 74 63 100q40 40 40 55q0 9 7 11q5 2 10.5 18.5t5.5 31.5q0 20 -28 20q-1 0 -14.5 -3.5t-36.5 -3.5 q-18 0 -30 2t-16.5 4t-6.5 2q-1 0 -5 -2q-7 -4 -132.5 -8.5t-135.5 -7.5q-3 -1 -26 -1q-14 0 -31.5 -12t-17.5 -29q0 -10 8 -26.5t8 -21.5q0 -3 9 -14.5t20.5 -27.5t16.5 -27q6 -12 14.5 -18t17.5 -23q30 -54 53 -78q36 -37 39 -78l2 -21l-22 -7q-13 -4 -24 -10t-16.5 -9.5 t-7.5 -3.5q-3 0 -22 -13.5t-26 -15.5q-4 -1 -6 -3.5t-2 -5.5t-3 -9.5t-10 -13.5q-21 -22 -21 -38q0 -27 20.5 -38.5t43.5 -11.5zM285 293q-9 0 -9 3q0 4 -21.5 12t-31.5 8q-7 0 -7 4q0 5 8 11.5t26 11.5t40 5q29 0 71 -28q27 -18 43 -52l2 -6q3 -6 6.5 -14.5t7.5 -19 t6.5 -21t2.5 -17.5q0 -11 -12 -36q-9 -20 -16 -30.5t-25.5 -20.5t-46.5 -10q-23 0 -23 9q0 3 4 7q10 8 17 35.5t7 56.5q0 41 -12 58q-24 34 -37 34zM174 726l11 1q11 1 28.5 3t37 4t41 3t36.5 1q13 0 63 -4.5t50 -10.5q0 -1 -5.5 -4t-5.5 -8q0 -12 -18.5 -34t-24.5 -33 q-6 -12 -17.5 -24.5t-21.5 -28.5q-15 -22 -17 -22l-15 -26q-14 -26 -22 -26q-3 0 -38 50.5t-35 54.5q0 10 -8 20t-8 13q0 6 -10 14q-8 7 -22.5 29t-14.5 27q0 2 2 2l4 -1h10z"/>
</svg>

<svg xmlns="http://www.w3.org/2000/svg" xmlns:xlink="http://www.w3.org/1999/xlink" version="1.1" viewBox="43 -19 528 875">
  <g>
    <path fill="currentColor" d="M 159.0,242.0 Q 172.0,242.0 177.0,246.0 Q 182.0,250.0 191.0,250.0 Q 210.0,250.0 228.0,240.5 Q 246.0,231.0 249.0,231.0 Q 255.0,231.0 264.0,222.0 Q 272.0,212.0 269.0,188.0 Q 267.0,170.0 261.5,162.0 Q 256.0,154.0 230.0,131.0 Q 184.0,90.0 184.0,76.0 Q 184.0,63.0 202.0,52.0 Q 220.0,41.0 233.0,41.0 Q 238.0,41.0 242.0,45.0 Q 245.0,48.0 248.0,43.0 Q 251.0,38.0 271.5,29.5 Q 292.0,21.0 302.0,21.0 Q 306.0,21.0 311.0,23.5 Q 316.0,26.0 323.0,27.0 Q 356.0,30.0 377.5,36.0 Q 399.0,42.0 405.0,46.5 Q 411.0,51.0 415.0,54.5 Q 419.0,58.0 421.0,58.0 Q 433.0,58.0 452.5,87.0 Q 472.0,116.0 483.0,149.0 Q 486.0,157.0 486.0,190.0 Q 486.0,268.0 464.0,292.0 Q 454.0,303.0 454.0,307.0 Q 454.0,314.0 435.0,339.0 Q 418.0,361.0 398.0,376.0 Q 378.0,391.0 360.0,400.0 Q 342.0,409.0 339.0,411.0 L 325.0,422.0 L 334.0,440.0 Q 360.0,490.0 370.0,501.0 Q 376.0,507.0 379.0,516.5 Q 382.0,526.0 385.0,531.0 Q 388.0,536.0 394.0,536.0 Q 399.0,536.0 400.0,537.5 Q 401.0,539.0 400.0,541.5 Q 399.0,544.0 401.0,549.5 Q 403.0,555.0 409.0,562.0 Q 421.0,574.0 421.0,579.0 Q 458.0,653.0 484.0,679.0 Q 524.0,719.0 524.0,734.0 Q 524.0,743.0 531.0,745.0 Q 536.0,747.0 541.5,763.5 Q 547.0,780.0 547.0,795.0 Q 547.0,815.0 519.0,815.0 Q 518.0,815.0 504.5,811.5 Q 491.0,808.0 468.0,808.0 Q 450.0,808.0 438.0,810.0 Q 426.0,812.0 421.5,814.0 Q 417.0,816.0 415.0,816.0 Q 414.0,816.0 410.0,814.0 Q 403.0,810.0 277.5,805.5 Q 152.0,801.0 142.0,798.0 Q 139.0,797.0 116.0,797.0 Q 102.0,797.0 84.5,785.0 Q 67.0,773.0 67.0,756.0 Q 67.0,746.0 75.0,729.5 Q 83.0,713.0 83.0,708.0 Q 83.0,705.0 92.0,693.5 Q 101.0,682.0 112.5,666.0 Q 124.0,650.0 129.0,639.0 Q 135.0,627.0 143.5,621.0 Q 152.0,615.0 161.0,598.0 Q 191.0,544.0 214.0,520.0 Q 250.0,483.0 253.0,442.0 L 255.0,421.0 L 233.0,414.0 Q 220.0,410.0 209.0,404.0 Q 198.0,398.0 192.5,394.5 Q 187.0,391.0 185.0,391.0 Q 182.0,391.0 163.0,377.5 Q 144.0,364.0 137.0,362.0 Q 133.0,361.0 131.0,358.5 Q 129.0,356.0 129.0,353.0 Q 129.0,350.0 126.0,343.5 Q 123.0,337.0 116.0,330.0 Q 95.0,308.0 95.0,292.0 Q 95.0,265.0 115.5,253.5 Q 136.0,242.0 159.0,242.0 M 285.0,293.0 Q 276.0,293.0 276.0,296.0 Q 276.0,300.0 254.5,308.0 Q 233.0,316.0 223.0,316.0 Q 216.0,316.0 216.0,320.0 Q 216.0,325.0 224.0,331.5 Q 232.0,338.0 250.0,343.0 Q 268.0,348.0 290.0,348.0 Q 319.0,348.0 361.0,320.0 Q 388.0,302.0 404.0,268.0 L 406.0,262.0 Q 409.0,256.0 412.5,247.5 Q 416.0,239.0 420.0,228.5 Q 424.0,218.0 426.5,207.5 Q 429.0,197.0 429.0,190.0 Q 429.0,179.0 417.0,154.0 Q 408.0,134.0 401.0,123.5 Q 394.0,113.0 375.5,103.0 Q 357.0,93.0 329.0,93.0 Q 306.0,93.0 306.0,102.0 Q 306.0,105.0 310.0,109.0 Q 320.0,117.0 327.0,144.5 Q 334.0,172.0 334.0,201.0 Q 334.0,242.0 322.0,259.0 Q 298.0,293.0 285.0,293.0 M 174.0,726.0 L 185.0,727.0 Q 196.0,728.0 213.5,730.0 Q 231.0,732.0 250.5,734.0 Q 270.0,736.0 291.5,737.0 Q 313.0,738.0 328.0,738.0 Q 341.0,738.0 391.0,733.5 Q 441.0,729.0 441.0,723.0 Q 441.0,722.0 435.5,719.0 Q 430.0,716.0 430.0,711.0 Q 430.0,699.0 411.5,677.0 Q 393.0,655.0 387.0,644.0 Q 381.0,632.0 369.5,619.5 Q 358.0,607.0 348.0,591.0 Q 333.0,569.0 331.0,569.0 L 316.0,543.0 Q 302.0,517.0 294.0,517.0 Q 291.0,517.0 256.0,567.5 Q 221.0,618.0 221.0,622.0 Q 221.0,632.0 213.0,642.0 Q 205.0,652.0 205.0,655.0 Q 205.0,661.0 195.0,669.0 Q 187.0,676.0 172.5,698.0 Q 158.0,720.0 158.0,725.0 Q 158.0,727.0 160.0,727.0 L 164.0,726.0 L 174.0,726.0"/>
  </g>
</svg>
